**kern	**kern	**dynam
*part1	*part1	*part1
*staff2	*staff1	*staff1
*IPiano	*IPiano	*IPiano
*clefF4	*clefG2	*clefG2
*k[f#c#g#d#]	*k[f#c#g#d#]	*k[f#c#g#d#]
*M3/4	*M3/4	*M3/4
=1	=1	=1
!Tempo Marking: Lent et melancolique	!Tempo Marking: Lent et melancolique	!Tempo Marking: Lent et melancolique
!Expression: doucement soutenu et tres expressif	!	!
(2.Gn 2.A# 2.c# 2.f#	(>2.e 2.a# 2.cc# 2.ff#	pp
=2	=2	=2
*^	*^	*
*	*^	*	*	*
4.e	2.Fn) 2.G# 2.B	8rFFF	4.dn 4.ee	2.g# 2.b	.
.	.	(>8CCC#'/L	.	.	pp
.	.	8CC#'/	.	.	.
8ryy	.	8GG#'/J	8c#L 8cc#	.	<
4ryy	.	4C#'/)	8d 8ddn	.	.
.	.	.	8bJ) 8bb	.	.
=3	=3	=3	=3	=3	=3
(2f#	2.Gn 2.A# 2.c#	8rFFF	2.e 2.a# 2.cc#	(2ff#	[>
.	.	(>8DDD#'/L	.	.	.
.	.	8DD#'/	.	.	.
.	.	8AA#'/J)	.	.	.
[4c#)	.	4r	.	[4cc#)	]
*v	*v	*v	*	*	*
*	*v	*v	*
=4	=4	=4
(>8c#L]	(>8cc#L]	[
8A#J	8a#J	.
16GnLL	16gnLL	.
16G#J	16g#J	.
8AnJ	8anJ	.
8FnL	8fnL	.
8C#J	8c#J	.
=5	=5	=5
*M2/4	*M2/4	*M2/4
16DnLL	16dnLL	.
16D#J	16d#J	.
8EJ	8eJ	.
8CnL	8cnL	.
8AAJ)	8AJ)	.
=6	=6	=6
*	*clefF4	*
*M3/4	*M3/4	*M3/4
(<[2AA~ [2A	8r	.
.	(>4Gn~ 4B 4c# 4e	.
.	8F#' 8B 8c# 8d#	.
8AAL] 8A]	[4F#') [4B [4c# [4d#	.
8AAAJ 8AA	.	.
=7	=7	=7
(2AA) 2A	(>8F#L] 8B] 8c#] 8d#]	.
.	16FnL 16B- 16cn 16dn	<
.	[16F#JJ) [16Bn [16c# [16d#	[>
.	2F#] 2B] 2c#] 2d#]	]
[4A~) [4a	.	.
*	*clefG2	*
=8	=8	=8
*^	*	*
2.A] 2.a]	8r	8r	[
.	(>4B~ 4c# 4d# 4g#	(>4b~ 4cc# 4dd# 4gg#	.
.	8F# 8G# 8A 8d#	8f#L 8g# 8a 8dd#	.
.	8AL 8B 8c# 8f#	8a 8b 8cc# 8ff#	.
.	8EJ 8F# 8G# 8c#	8eJ 8f# 8g# 8cc#	.
=9	=9	=9	=9
2Gn 2A 2B 2e	4r	2gn 2a 2b 2ee	>
.	2AAA~ 2AA	.	.
4Dn) 4E 4F# 4B	.	4dn) 4e 4f# 4b	.
=10	=10	=10	=10
*	*	*^	*
2Fn 2Gn 2A 2dn	4r	(>2fn 2gn 2a 2ddn	2ryy	]p
.	2GGGn~ 2GGn	.	.	.
8D#L 8F# 8B	.	8d#L 8f# 8b	4g	<
8EJ 8A 8cn	.	8eJ) 8a 8ccn	.	.
=11	=11	=11	=11	=11
2Fn 2Gn 2A 2dn	4r	(>2fn 2gn 2a 2ddn	2ryy	[p
.	2GGGn~ 2GGn	.	.	.
8D#L 8F#X 8B	.	8d#L 8f#X 8b	4g	<
8EJ 8A 8cn	.	8eJ) 8a 8ccn	.	.
=12	=12	=12	=12	=12
*M2/4	*M2/4	*M2/4	*M2/4	*M2/4
2Fn~ 2Gn 2A 2e	4r	8r	2fn~ 2gn 2a 2ee	[p
.	.	(>8bb'L	.	pp
.	4GGGn' 4GGn	8ee'	.	.
.	.	8b'J)	.	.
=13	=13	=13	=13	=13
!	!	!	!	!Dynamic Expression: piu
2Gn~ 2A 2B 2e	4r	8r	2gn~ 2a 2b 2ee	p
.	.	(>8bb'L	.	.
.	4GGGn' 4GGn	8ee'	.	.
.	.	8b'J)	.	.
=14	=14	=14	=14	=14
2Dn~ 2Fn 2A 2e	4r	8r	2fn~ 2gn 2a 2ee	pp
.	.	(>8bb'L	.	.
.	4GGGn' 4GGn	8ee'	.	.
.	.	8b'J)	.	.
*v	*v	*	*	*
=15	=15	=15	=15
*M3/4	*M3/4	*M3/4	*M3/4
*	*	*^	*
2.CC# 2.GG#	8r	(>4.e~	2.Fn\ 2.B	p
.	(>8bb'L	.	.	pp
.	8ee'J)	.	.	.
.	4r	8c#L	.	.
.	.	8dn	.	.
.	8r	8bJ	.	.
=16	=16	=16	=16	=16
2.DD#Xi 2.AA#	8r	2f#	2.Gn\ 2.A# 2.c#	.
.	(>8aa#X'L	.	.	.
.	8dd#'	.	.	.
.	8a#'J)	.	.	.
.	4r	(4c#)	.	.
*	*v	*v	*v	*
*	*clefF4	*
=17	=17	=17
2.r	8c#L	.
.	8A#J	.
.	16GnLL	.
.	16G#J	.
.	8AnJ	.
.	8FnL	>
.	8C#J	.
=18	=18	=18
*M2/4	*M2/4	*M2/4
2r	16DnLL	.
.	16D#J	.
.	8EJ	]
.	8CnL	.
!	!Expression: m.g.	!
.	[8GG#J)	.
=19	=19	=19
!Tempo Marking: Un peu plus allant et plus gravement expressif	!Tempo Marking: Un peu plus allant et plus gravement expressif	!Tempo Marking: Un peu plus allant et plus gravement expressif
(<16DDnLL	2GG#_	pp<
16DD#J	.	.
8EEJ	.	.
8CCn'L	.	[>
8GGG#'J)	.	]
=20	=20	=20
!	!	!Dynamic Expression: simile
(<16DDnLL	2GG#_	]
16DD#J	.	.
8EEJ	.	.
8CCn'L	.	.
8GGG#'J)	.	.
=21	=21	=21
*	*^	*
*	*	*^	*
(<16DDnLL	2GG#_	(>[2e~	[2Dn\ [2E [2G# [2cn	p
16DD#J	.	.	.	.
8EEJ	.	.	.	.
8CCn'L	.	.	.	.
8GGG#'J)	.	.	.	.
=22	=22	=22	=22	=22
(<16DDnLL	2GG#_	4e_	2D\] 2E] 2G#] 2c]	.
16DD#J	.	.	.	.
8EEJ	.	.	.	.
8CCn'L	.	8.eL]	.	.
8GGG#'J)	.	.	.	.
.	.	16f#Jk)	.	.
=23	=23	=23	=23	=23
(<16DDnLL	2GG#_	(>8.f#L	4E\ 4A# 4dn	<
16DD#J	.	.	.	.
8EEJ	.	.	.	.
.	.	16g#Jk)	.	[
*	*clefG2	*	*	*
8CCn'L	.	(>8.g#L	4F#\ 4cn	<
8GGG#'J)	.	.	.	.
.	.	16a#Jk)	.	[
=24	=24	=24	=24	=24
(<16DDnLL	2GG#]	(>8.a#L	4G#\ 4dn 4f#	<
16DD#J	.	.	.	.
8EEJ	.	.	.	.
.	.	16b#Jk)	.	[
8CCn'L	.	(>8.b#L	4A#\ 4e 4g#	<
8GGG#'J)	.	.	.	.
.	.	16cc#Jk)	.	[
*	*v	*v	*v	*
=25	=25	=25
!	!Expression: un peu en dehors	!
*^	*^	*
2G# 2A# 2c# 2e	4r	(>8a'L 8cc# 8ee 8aa	(<4.gn	ppp
.	.	8dd#' 8ggn 8aa#X 8ddd#	.	.
.	4GGG#'	8ff#' 8aa# 8ccc# 8fff#	.	pp
.	.	8b#'J) 8ee 8gg 8bb#	8a	.
*v	*v	*	*	*
=26	=26	=26	=26
2G# 2A# 2c# 2e	(>8a'L 8cc# 8ee 8aa	8gnL	.
.	8dd#' 8ggn 8aa# 8ddd#	16eL	.
.	.	16f#JJ	.
.	8ff#' 8aa# 8ccc# 8fff#	8gL	.
.	8b#'J) 8ee 8gg 8bb#	8aJ)	.
=27	=27	=27	=27
[2G# [2A# [2c# [2e	(>8a'L 8cc# 8ee 8aa	(<4e	.
.	8dd#' 8ggn 8aa# 8ddd#	.	.
.	8ff#' 8aa# 8ccc# 8fff#	[4gn	.
.	8b#'J) 8ee 8gg 8bb#	.	.
=28	=28	=28	=28
*^	*	*	*
2G#] 2A#] 2c#] 2e]	4GGG#'	(>8a'L 8cc# 8ee 8aa	4g]	.
.	.	8dd#' 8ggn 8aa# 8ddd#	.	.
.	4r	8ff#' 8aa# 8ccc# 8fff#	[4gn~)	.
.	.	8b#'J) 8ee 8gg 8bb#	.	.
*v	*v	*	*	*
=29	=29	=29	=29
[2G# [2A# [2c# [2e	(>8dd#'L 8ggn 8aa# 8ddd#	(<8.gnL]	.
.	8b#'J) 8ee 8gg 8bb#	.	.
.	.	16a#Jk	.
.	(>8dd#'L 8gg 8aa# 8ddd#	[4g)	.
.	8b#'J) 8ee 8gg 8bb#	.	.
=30	=30	=30	=30
*^	*	*	*
2G#] 2A#] 2c#] 2e]	4GGG#'	(>8dd#'L 8ggn 8aa# 8ddd#	(<8.gnL]	<
.	.	8b#J) 8ee 8gg 8bb#	.	.
.	.	.	16a#Jk)	.
.	4r	(>8dd#'L 8gg 8aa# 8ddd#	(<8.gL	.
.	.	8b#J) 8ee 8gg 8bb#	.	.
.	.	.	16a#Jk)	[
=31	=31	=31	=31	=31
!Tempo Marking: Plus lent	!Tempo Marking: Plus lent	!Tempo Marking: Plus lent	!Tempo Marking: Plus lent	!Tempo Marking: Plus lent
2F# 2A#X 2c#	4r	4ryy	[2f#~ [2a# [2cc#	p
!	!	!Expression: marque	!	!
.	[4FFF# [4CC# [4FF#	[4ccc# [4fff# [4aaa#X [4cccc#	.	ppp
*v	*v	*	*	*
=32	=32	=32	=32
8FFF#] 8CC#] 8FF#]	8ccc#] 8fff#] 8aaa#] 8cccc#]	8.f#L] 8.a#] 8.cc#]	.
8r	8rccc	.	.
!	!	!Expression: en dehors	!
.	.	(<48anLL 48ccn 48ee	mf<
.	.	48f# 48a# 48cc#	.
.	.	48anJJJ) 48ccn 48ee	.
4r	4rccc	8.ddnL) 8.ff# 8.aa	[
.	.	(48aLL 48cc 48ee	>
.	.	48dd 48ff# 48aa	.
.	.	48aJJJ) 48cc 48ee	.
*^	*	*	*
=33	=33	=33	=33	=33
!	!	!	!Expression: marque	!
[2F# [2A# [2c#	4r	4r	[2f#~ [2a# [2cc#	]p
.	[4FFF# [4CC# [4FF#	[4ccc# [4fff# [4aaa# [4cccc#	.	ppp>
=34	=34	=34	=34	=34
8.F#L] 8.A#] 8.c#]	8FFF#] 8CC#] 8FF#]	8ccc#] 8fff#] 8aaa#] 8cccc#]	8f#] 8a#] 8cc#]	]
.	8r	8r	8ryy	.
(>48AnLL 48cn 48e	.	.	.	mf<
48F# 48A# 48c#	.	.	.	.
48AnJJJ 48cn 48e	.	.	.	.
8.dnL) 8.f# 8.a	4r	4r	4ryy	[>
(>48ALL 48c 48e	.	.	.	.
48d 48f# 48a	.	.	.	.
48AJJJ 48c 48e	.	.	.	]
*v	*v	*	*	*
*	*v	*v	*
=35	=35	=35
2F#) 2A# 2c#	2r	p
=36	=36	=36
!	!	!Dynamic Expression: molto dim
[4Dn [4F# [4A	2r	.
(>12D'L] 12F#] 12A]	.	.
12Fn' 12A- 12cn	.	.
12D'J) 12F 12An	.	.
=37	=37	=37
*^	*^	*
2BB# 2F# 2A#	4rEE	(>[4g#	(<2e	p
.	4GGG#'	8.g#L]	.	pp<
.	.	48b#LL	.	.
.	.	48g#	.	.
.	.	48b#JJJ	.	.
=38	=38	=38	=38	=38
2BB# 2F# 2G##	4rEE	[4ee#	2d#)	[>
.	4GGG#'	8.ee#L]	.	.
.	.	48b#LL	.	.
.	.	48ee#	.	.
.	.	48b#JJJ)	.	.
=39	=39	=39	=39	=39
2BB# 2F# 2A#	4rEE	(>[4g#	(<2e	]p
.	4GGG#'	8.g#L]	.	.
.	.	48b#LL	.	.
.	.	48g#	.	.
.	.	48b#JJJ	.	.
=40	=40	=40	=40	=40
!Tempo Marking: Cedez	!Tempo Marking: Cedez	!Tempo Marking: Cedez	!Tempo Marking: Cedez	!Tempo Marking: Cedez
2BB# 2F# 2G##	4rEE	8.ee#L	2d#)	>
.	.	48gg##LL	.	.
.	.	48ee#	.	.
.	.	48gg##JJJ	.	.
.	4GGG#'	8bb#L	.	.
.	.	8ddd#ZJ)	.	]
*v	*v	*	*	*
*	*v	*v	*
=41	=41	=41
*M3/4	*M3/4	*M3/4
*^	*	*
!Tempo Marking: Mouvt (dans le sentiment du debut)	!Tempo Marking: Mouvt (dans le sentiment du debut)	!Tempo Marking: Mouvt (dans le sentiment du debut)	!Tempo Marking: Mouvt (dans le sentiment du debut)
*	*8ba	*	*
(>2.Gn 2.A# 2.c# 2.f#	4r	(>2.ff# 2.aa#X 2.ccc# 2.fff#	pp
.	[4CCC#	.	.
.	8CCC#]	.	.
.	8r	.	.
=42	=42	=42	=42
*	*^	*	*
4.E	2.FFn) 2.AA 2.BB	4rCC	4.ee 4.eee	.
.	.	[4CCC#/	.	.
8C#L	.	.	8cc#L 8ccc#	<
8Dn	.	8CCC#/]	8ddn 8dddn	.
8BJ)	.	8rCC	8bbJ) 8bbb	[
=43	=43	=43	=43	=43
(>2F#	2.GGn 2.AA#X 2.C#	4rCC	(>2ff# 2fff#	>
.	.	[4CCC#/	.	.
[4C#)	.	8CCC#/]	[4cc#) 4ccc#	.
*	*	*X8ba	*	*
.	.	8rEE	.	]
*v	*v	*v	*	*
=44	=44	=44
(>8c#L]	(>8cc#L]	pp
8A#J	8a#J	.
16GnLL	16gnLL	.
16G#J	16g#J	.
8AnJ	8anJ	.
8FnL	8fnL	.
8C#J	8c#J	.
=45	=45	=45
*M2/4	*M2/4	*M2/4
16DnLL	16dnLL	.
16D#J	16d#J	.
8EJ	8eJ	.
8CnL	8cnL	.
*	*clefF4	*
[8AAJ	[8AJ	.
=46	=46	=46
8AA]	8A]	>
4EE	4E	.
8CCn)	8Cn)	]
=47	=47	=47
*M3/4	*M3/4	*M3/4
*8ba	*	*
!	!Expression: lointain	!
(<4.DDDn	(>4.AA~ 4.Dn 4.F# 4.A	pp
8FFFn'L	8Cn'L 8Fn 8A- 8cn	.
8DDD'	8AA' 8D 8F# 8An	.
8FFF'J	8C'J 8Fn 8A- 8c	.
=48	=48	=48
*^	*^	*
*	*	*	*^	*
*	*	*	*	*^	*
[2.BBB-)	8rGG	4rg	2.Fn) 2.B- 2.dn 2.fn	4rAAA	4ryy	.
.	[8BBBB-	.	.	.	.	.
*	*	*clefG2	*	*	*	*
!	!	!LO:TX:b:i:t=m.g.	!	!	!	!
.	2BBBB-_	(>4.aa~ 4.aaa	.	[2b-~/ [2ddn [2dddn	(<4.a\	p>
.	.	8aa- 8aaa-	.	.	8a-\	.
*	*	*	*	*v	*v	*
=49	=49	=49	=49	=49	=49
2BBB-X]	2BBBB-X]	8gg- 8ggg-	2b-X] 2ddn] 2dddn]	8g-\	]
.	.	4.ffn) 4.fffn	.	4.fn\)	.
4r	4ryy	4ryy	4r	4r	.
*v	*v	*	*	*	*
*	*v	*v	*v	*
*X8ba	*	*
=50	=50	=50
*^	*	*
*	*	*^	*
*	*	*	*^	*
*	*	*	*	*^	*
!	!	!	!	!	!Expression: m.g.	!
4r	4ryy	(>2aa#~ 2aaa#	[2.ccc#	2.cc#/	(<2a#~\	p
!Expression: m.d.	!	!	!	!	!	!
[4GG# [4C#	[4CCC# [4CC#	.	.	.	.	ppp
8GG#] 8C#]	8CCC#] 8CC#]	4gg# 4ggg#	.	.	4g#\	>
8r	8r	.	.	.	.	.
*v	*v	*	*	*	*	*
=51	=51	=51	=51	=51	=51
2.r	4ff# 4fff#	2.ccc#_	[2.c#/ [2.cc#	4f#\	.
.	[2ee#) [2eee#	.	.	[2e#\)	.
=52	=52	=52	=52	=52	=52
2.r	4ee#X] 4eee#X]	2.ccc#]	2.c#/] 2.cc#]	4e#X\]	]
.	2r	.	.	2ryy	.
*	*v	*v	*v	*v	*
==	==	==
*-	*-	*-
!!!system-decoration: {(s1,s2)}
!!!RDF**kern: > = above
!!!RDF**kern: < = below
!!!RDF**kern: i = editorial accidental
!!!RDF**kern: Z = caesura
